X:1
T:Vidi turbam magnam - Porta
T:James Gibb editions
T:#
%%score [ 1 2 3 4 ]
L:1/8
Q:1/4=200
M:none
K:C
V:1 treble nm="Soprano" snm="S"
V:2 treble nm="Alto" snm="A"
V:3 treble-8 nm="Tenor" snm="T"
V:4 bass nm="Bass" snm="B"
V:1
"^Vidi turbam magnam""^Costanzo Porta\n(c.1529-1601)""^Revelation 7: 9, 11" z16 | z16 | z16 | z16 | %4
w: ||||
 z16 | z16 | z16 | z16 | A16 | (A8 G8) | c8 A4 (c4- | c4 B2 A2 B6 A2 | G4) E4 z4 E4- | %13
w: ||||Vi-|di *|tur- bam ma\-||* gnam, quam|
 E4 E4 G4 D4 | E8 F4 D2 (E2 | F2 G2 A2 B2 c6 B2 | G4) A4 (A6 G2 | F4) F4 G8 | z8 z4 A4 | %19
w: * di- nu- me-|ra- re ne\- *||* mo po\- *|* te- rat,|ex|
 A6 A2 G4 c4- | c4 c4 B8 | z16 | z8 G8 | G6 G2 F4 z2 A2 | A6 A2 G4 (c4- | c4 B2 A2 G6) E2 | %26
w: o- mni- bus Gen\-|* ti- bus,||ex|o- mni- bus, ex|o- mni- bus Gen\-|* * * * ti-|
 ^F4 A8 D4 | E8 E4 =F4- | F4 (E6 F2 G4) | E8 D8- | D8 z8 | z16 | z4 A4 A4 D4 | %33
w: bus, stan- tes|an- te thro\-|* num * *|De- i.|||Et o- mnes|
 (F2 G2 A2 B2 c4) c4 | A8 (A6 G2 | F4) E4 E4 c4 | (B6 c2 A2 B2 c2 A2 | B4) B4 A4 (d4- | %38
w: An- * * * * ge-|li sta- *|* bant in cir-|cu\- * * * * *|* i- ti thro\-|
 d2 A2 c2 B2 B2 AB c4) | A4 (d2 cB c2 BA G4) | G8 z8 | z16 | z16 | z4 A4 F4 E4 | D8 E8 | z8 E8 | %46
w: |ni, sta\- * * * * * *|bant,|||et ce- ci-|de- runt,|et|
 G12 F4 | E8 D8 | z8 z4 G4- | G4 G4 F8- | F4 E4 G8 | D8 z8 | G16 | F6 F2 E4 (C2 D2 | %54
w: ce- ci-|de- runt|in|* con- spe\-|* ctu thro-|ni|in|fa- ci- es su\- *|
 E2 F2 G6 F2 F2 ED | E6 F2 G4) E4 | z8 z4 D4 | A4 A4 G4 A4- | A4 E4 (F2 D2 F4- | %59
w: |* * * as,|et|a- do- ra- ve\-|* runt De\- * *|
 F2 G2 A2 B2 c2 A2 _B4) | A4 D4 A4 A4- | A4 G4 (A2 B2 c2 B2 | A2 G2 F2 E2 D4) E4 | %63
w: |um, et a- do\-|* ra- ve\- * * *|* * * * * runt|
 (F2 G2 A2 B2 c4 d4) | c8 z8 | z4 F4 A4 A4- | A4 G4 (A2 G2 F2 E2 | %67
w: De\- * * * * *|um,|et a- do\-|* ra- ve\- * * *|
 A8) F4[Q:1/4=199] (E2[Q:1/4=197] F2 |[Q:1/4=195] G2[Q:1/4=193] D2[Q:1/4=189] F8[Q:1/4=184] E4- | %69
w: * runt De\- *||
[Q:1/4=181] E2[Q:1/4=180] D2[Q:1/4=176] D8[Q:1/4=171] ^C4) |[Q:1/4=170] D16 |] %71
w: |um.|
V:2
 A,8 (A,8 | G,8) C8 | D4 (F8 E2 D2 | E6 D2 C4) A,4 | z4 E8 E4 | G4 D4 (E2 F2 G2 E2 | %6
w: Vi- di|* tur-|bam ma\- * *|* * * gnam,|quam di-|nu- me- ra\- * * *|
 F2 E2 D2 C2 D8) | G,4 (G2 F2 E2 D2 C4) | D4 F8 D4 | C4 E8 E4 | C4 F4 (E2 D2 C2 A,2 | %11
w: |re ne\- * * * *|mo po- te-|rat, quam di-|nu- me- ra\- * * *|
 C2 D2 E2 F2 G4) D4 | E4 G4 F4 E4 | C8 z8 | A,16 | (A,8 G,8) | C8 D4 (F4- | F4 E2 D2 E4) C4 | %18
w: * * * * * re|ne- mo po- te-|rat,|vi-|di *|tur- bam ma\-|* * * * gnam,|
 z4 D8 D4 | F4 C4 E4 F4 | E6 C2 D4 E4 | B,8 z8 | z8 z4 E4 | E6 E2 D4 F4- | F4 F4 E8 | z4 E8 B,4 | %26
w: quam di-|nu- me- ra- re|ne- mo po- te-|rat,|ex|o- mni- bus Gen\-|* ti- bus,|stan- tes|
 D4 C4 A,8- | A,4 G,4 (C4 B,2 A,2 | D4) C4 z4 C4- | C4 G,4 B,8- | B,4 B,4 (A,6 B,2 | %31
w: an- te thro\-|* num De\- * *|* i, stan\-|* tes an\-|* te thro\- *|
 C2 D2 E6 D2 D4- | D4) C4 (F6 E2 | D2 C2 F4) E8 | z4 D4 D8 | A,4 (C6 D2 E2 F2 | G4 E4 C8 | %37
w: |* num De\- *|* * * i.|Et o-|mnes An\- * * *|* ge- li|
 (D6 C2 D2 E2 F4- | F4 E4) E8 | z8 E8- | E4 D4 B,4 C4 | D6 E2 C2 D2 E2 C2 | D2 E2 F8) E4 | %43
w: sta\- * * * *|* * bant,|sta\-|* bant in cir-|cu\- * * * * *|* * * i-|
 (F6 E2 D4) (C4- | C4 B,4) C8 | z4 G,4 C8- | C4 B,4 (A,6 B,2 | C2 G,2 C8 _B,4) | A,8 z8 | %49
w: tu * * thro\-|* * ni,|et ce\-|* ci- de\- *||runt|
 z4 D8 D4 | C8 B,4 (B,4- | B,2 C2 D4) A,8 | z4 E8 D4- | D4 D4 C4 (A,2 B,2 | C2 A,2 _B,6 A,2 D4- | %55
w: in con-|spe- ctu thro\-|* * * ni|in fa\-|* ci- es su\- *||
 D4 ^C4 z2 D2 C4 | D4 A,4 A,4 A,4 | (F2 ED C2 D2 E4 A,4) | A,8 z4 A,4 | D4 D4 C4 D2 E2 | %60
w: * as, et a-|do- ra- ve- runt|De\- * * * * * *|um, et|a- do- ra- ve\- *|
 F6 ED E2 C2 F4- | F4) E4 (E6 D2 | C2 B,2 A,6 G,F, G,4) | F,8 z8 | z4 A,4 D4 D4 | C4 (D6 E2 F4) | %66
w: |* runt De\- *||um,|et a- do-|ra- ve\- * *|
 E8 C8- | C4 F4 D4 E4 | B,4 C4 D4 E4 | A,16 | A,16 |] %71
w: runt De\-|* um, et a-|do- ra- ve- runt|De-|um.|
V:3
 z16 | z16 | D8 (D8 | C8) F8 | E4 (c8 B2 A2 | B6 A2 G4) E4 | z4 A8 A4 | c4 G4 (A6 G2 | %8
w: ||Vi- di|* tur-|bam ma\- * *|* * * gnam,|quam di-|nu- me- ra\- *|
 F4) D4 (F6 G2 | A2 B2 c4) c4 (B2 c2 | A2 B2 c2 A2 c2 d2 e2 f2 | e4) c4 d8 | z8 A8 | (A8 G8) | %14
w: * re ne\- *|* * * mo po\- *||* te- rat,|vi-|di *|
 c8 d4 (f4- | f4 e2 d2 e8- | e4) A4 z4 A4- | A4 A4 c4 G4 | A8 G4 (F4- | F2 G2 A2 F2 c4) A4 | %20
w: tur- bam ma\-||* gnam, quam|* di- nu- me-|ra- re ne\-|* * * * * mo|
 A4 A4 G8 | z4 B4 B6 B2 | A4 d8 c4 | B8 z4 d4- | d4 A4 c4 A4 | (G6 A2 B4) G4 | (A6 B2 c4 B2 A2 | %27
w: po- te- rat,|ex o- mni-|bus Gen- ti-|bus, stan\-|* tes an- te|thro\- * * num|De\- * * * *|
 B8) A8 | z4 A8 E4 | G16 | G8 F8 | A4 (G6 F2 F2 ED | E8) D8 | z8 A8 | A4 D4 (F6 E2 | F2 G2 A8) G4 | %36
w: * i,|stan- tes|an-|te thro-|num De\- * * * *|* i.|Et|o- mnes An\- *|* * * ge-|
 G8 z8 | z4 G8 F4 | D4 E4 (G6 A2 | F2 G2 A2 G2 A2 B2 c4- | c2 BA B2 c2 d4) G4 | %41
w: li|sta- bant|in cir- cu\- *||* * * * * * i-|
 A4 (B2 AG A2 B2 c2 A2 | B2 c2 d8 ^c4) | d8 z8 | G8 G4 G4 | (E12 D2 C2 | D16) | C8 z8 | z4 c8 c4 | %49
w: tu thro\- * * * * * *||ni,|et ce- ci-|de\- * *||runt|in con-|
 B8 A8- | A8 d8 | B4 B4 c4 A4 | B4 (c8 B4) | A16 | z8 D8 | A4 A4 G4 (A4- | A2 G2 F4) E4 (F4- | %57
w: spe- ctu|* thro-|ni in fa- ci-|es su\- *|as,|et|a- do- ra- ve\-|* * * runt De\-|
 F2 G2 A2 B2 c6 d2 | c8) A8 | z4 D4 A4 G4 | A4 _B4 A4 (F2 G2 | =A2 B2 c4) A8 | z16 | z4 D4 A4 A4 | %64
w: |* um,|et a- do-|ra- ve- runt De- *|* * * um,||et a- do-|
 G4 (c2 A2 _B2 A2 F2 G2 | A4 D4 (F2 G2 A2 B2 | c2 d2 e2 E2 F2 G2 A4) | E4 z2 D2 A4 A4 | G4 A8 A4 | %69
w: ra- ve\- * * * * *|* runt De\- * * *||um, et a- do-|ra- ve- runt|
 F8 E8) | D16 |] %71
w: De\- *|um.|
V:4
 z16 | z16 | z16 | z16 | A,,8 (A,,8 | G,,8) C,8 | D,4 (F,8 E,2 D,2 | E,6 D,2 C,4) A,,4 | %8
w: ||||Vi- di|* tur-|bam ma\- * *|* * * gnam,|
 z4 D,8 D,4 | F,4 C,4 (E,2 F,2 G,2 E,2 | F,2 G,2 A,8) A,4 | A,8 G,8 | (E,6 D,C, D,4) C,4 | %13
w: quam di-|nu- me- ra\- * * *|* * * re|ne- mo|po\- * * * te-|
 A,,8 z8 | z8 D,8 | D,4 F,4 C,4 (E,4- | E,4 F,8) D,4 | D,4 D,4 C,4 E,4 | D,8 z8 | z16 | z8 z4 E,4 | %21
w: rat,|quam|di- nu- me- ra\-|* * re|ne- mo po- te-|rat,||ex|
 E,6 E,2 D,4 G,4- | G,4 F,4 E,8- | E,8 z8 | z16 | E,8 E,6 E,2 | D,4 F,8 F,4 | E,8 z4 D,4- | %28
w: o- mni- bus Gen\-|* ti- bus,|||ex o- mni-|bus Gen- ti-|bus, stan\-|
 D,4 A,,4 C,8- | C,8 G,,8- | G,,8 (D,6 C,B,, | A,,4) C,4 _B,,8 | A,,8 z8 | z16 | z8 z4 D,4 | %35
w: * tes an\-|* te|* thro\- * *|* num De-|i.||Et|
 D,4 A,,4 (C,6 D,2 | E,2 F,2 G,2 E,2 F,4) A,4 | G,8 z4 A,4- | A,4 G,4 E,4 C,4 | %39
w: o- mnes An\- *|* * * * * ge-|li sta\-|* bant in cir-|
 (D,6 E,2 C,2 D,2 E,2 F,2 | G,12 F,2 E,2 | F,2 E,F, G,2 E,2 F,4) C,4 | G,4 (D,2 E,2 F,2 G,2 A,4) | %43
w: cu\- * * * * *||* * * * * * i-|tu thro\- * * * *|
 D,8 z8 | z8 C,8 | C,4 C,4 A,,8 | G,,8 z8 | z4 G,8 G,4 | F,8 E,8 | G,8 D,8 | z8 G,8- | %51
w: ni,|et|ce- ci- de-|runt|in con-|spe- ctu|thro- ni|in|
 G,8 F,6 F,2 | (E,4 C,2 D,2 E,2 F,2 G,4) | D,8 z8 | z16 | z8 z4 A,,4 | D,4 D,4 C,4 (D,4- | %57
w: * fa- cies|su\- * * * * *|as,||et|a- do- ra- ve\-|
 D,2 E,2 F,4) E,4 (F,4- | F,2 G,2 A,4) D,8 | z16 | z16 | z8 z4 A,,4- | A,,4 D,4 D,4 C,4 | %63
w: * * * runt De\-|* * * um,|||et|* a- do- ra-|
 (D,2 E,2 F,8 E,2 D,2 | E,4) F,4 (G,2 F,2 D,2 E,2 | F,2 G,2 A,4) D,8 | z8 z4 A,,4- | %67
w: ve\- * * * *|* runt De\- * * *|* * * um,|et|
 A,,4 D,4 D,4 C,4 | (E,2 G,2 F,2 E,2 D,4) C,4 | (D,8 A,,8) | D,16 |] %71
w: * a- do- ra-|ve\- * * * * runt|De\- *|um.|

